X: 132
T: Xiu hebao
L: 1/8
M: 2/4
K: F
dd2c [I:setbarnb 1]| 
f dc2 | 
c d/ f/ d c | 
dA2G | 
A4 | 
dd2c | 
f dc2 | 
c d/ f/ d c | 
dA2G | 
A2A D | 
F2c d | 
c A c G | 
G F A z | 
A> G F A | 
G> E G D | 
D CD2- | 
D2A D | 
F2c d | 
c A c G | 
G F A z | 
A> G F A | 
G> E G D | 
D CD2- | 
D2z2 |]

@@@ Tune index: 9006
